src/food-drink/food-sweet/1F967.svg

<svg id="emoji" viewBox="0 0 72 72" xmlns="http://www.w3.org/2000/svg">
  <g id="grid">
    <path fill="#b3b3b3" d="M68,4V68H4V4H68m4-4H0V72H72V0Z"/>
    <path fill="none" stroke="#00a5ff" stroke-miterlimit="10" stroke-width="0.1" d="M12.923,10.9583H59.0769A1.9231,1.9231,0,0,1,61,12.8814V59.0352a1.9231,1.9231,0,0,1-1.9231,1.9231H12.9231A1.9231,1.9231,0,0,1,11,59.0352V12.8813A1.923,1.923,0,0,1,12.923,10.9583Z"/>
    <rect x="16" y="4" rx="2.2537" width="40" height="64" fill="none" stroke="#00a5ff" stroke-miterlimit="10" stroke-width="0.1"/>
    <rect x="16" y="4" rx="2.2537" width="40" height="64" transform="translate(72) rotate(90)" fill="none" stroke="#00a5ff" stroke-miterlimit="10" stroke-width="0.1"/>
    <circle cx="36" cy="36" r="29" fill="none" stroke="#00a5ff" stroke-miterlimit="10" stroke-width="0.1"/>
  </g>
  <g id="color">
    <path fill="#FFFFFF" stroke="none" d="M66.7469,49.0622c0,0-1.8957,3.0508-2.0249,4.0996c-0.2071,1.6855-0.3762,3.0747-2.0747,3.0747H9.3527 c-1.6985,0-2.8676-1.3892-3.0747-3.0747c-0.1292-1.0488-1.1667-4.0996-1.1667-4.0996l-0.1189-6.8581 C7.3516,38.771,15.5828,36.7635,36,36.7635c20.1722,0,31.6119,0.102,30.9228,4.2365L66.7469,49.0622z"/>
    <path fill="#fcea2b" stroke="none" d="M63.7295,36.3262C63.373,34.8027,62.793,33,62.793,33c-2.8409-6.8564-8.2969-12.6299-15.6953-15.6943 C32.623,11.311,16.0771,17.9009,9.624,32.041c0,0-0.7802,1.8653-1.1504,4.2217C6.4639,36.9102,5,38.7744,5,41 c0,2.7617,2.2393,5,5,5c1.8662,0,3.4736-1.0342,4.333-2.5488C15.1924,44.9658,16.8008,46,18.667,46 c1.8652,0,3.4746-1.0352,4.333-2.5498C23.8584,44.9648,25.4678,46,27.333,46c1.8662,0,3.4746-1.0342,4.334-2.5488 C32.5264,44.9658,34.1338,46,36,46c1.8662,0,3.4736-1.0342,4.333-2.5488C41.1924,44.9658,42.8008,46,44.667,46 c1.8652,0,3.4746-1.0352,4.333-2.5498C49.8584,44.9648,51.4678,46,53.333,46c1.8662,0,3.4746-1.0342,4.334-2.5488 C58.5264,44.9658,60.1338,46,62,46c2.7607,0,5-2.2383,5-5C67,38.8496,65.6338,37.0313,63.7295,36.3262z"/>
  </g>
  <g id="hair"/>
  <g id="skin"/>
  <g id="skin-shadow"/>
  <g id="line">
    <path fill="none" stroke="#000000" stroke-linecap="round" stroke-linejoin="round" stroke-miterlimit="10" stroke-width="2" d="M66,49c0,0-0.874,2.9766-1,4c-0.2021,1.6445-1.3428,3-3,3H10c-1.6572,0-2.7979-1.3555-3-3c-0.126-1.0234-1-4-1-4"/>
    <path fill="none" stroke="#000000" stroke-linecap="round" stroke-linejoin="round" stroke-miterlimit="10" stroke-width="2" d="M63.7295,36.3262C63.373,34.8027,62.793,33,62.793,33c-2.8409-6.8564-8.2969-12.6299-15.6953-15.6943 C32.623,11.311,16.0771,17.9009,9.624,32.041c0,0-0.7802,1.8653-1.1504,4.2217C6.4639,36.9102,5,38.7744,5,41 c0,2.7617,2.2393,5,5,5c1.8662,0,3.4736-1.0342,4.333-2.5488C15.1924,44.9658,16.8008,46,18.667,46 c1.8652,0,3.4746-1.0352,4.333-2.5498C23.8584,44.9648,25.4678,46,27.333,46c1.8662,0,3.4746-1.0342,4.334-2.5488 C32.5264,44.9658,34.1338,46,36,46c1.8662,0,3.4736-1.0342,4.333-2.5488C41.1924,44.9658,42.8008,46,44.667,46 c1.8652,0,3.4746-1.0352,4.333-2.5498C49.8584,44.9648,51.4678,46,53.333,46c1.8662,0,3.4746-1.0342,4.334-2.5488 C58.5264,44.9658,60.1338,46,62,46c2.7607,0,5-2.2383,5-5C67,38.8496,65.6338,37.0313,63.7295,36.3262z"/>
    <line x1="36" x2="36" y1="32" y2="26" fill="none" stroke="#000000" stroke-linecap="round" stroke-linejoin="round" stroke-miterlimit="10" stroke-width="2"/>
    <line x1="22.4443" x2="27.2217" y1="29.5566" y2="24.7783" fill="none" stroke="#000000" stroke-linecap="round" stroke-linejoin="round" stroke-miterlimit="10" stroke-width="2"/>
    <line x1="49.5566" x2="44.7783" y1="29.5566" y2="24.7783" fill="none" stroke="#000000" stroke-linecap="round" stroke-linejoin="round" stroke-miterlimit="10" stroke-width="2"/>
  </g>
</svg>

<svg viewBox="0 0 72 72" xmlns="http://www.w3.org/2000/svg"><path fill="#b3b3b3" d="M68 4v64H4V4h64m4-4H0v72h72V0z"/><path fill="none" stroke="#00a5ff" stroke-miterlimit="10" stroke-width=".1" d="M12.923 10.958h46.154A1.923 1.923 0 0161 12.881v46.154a1.923 1.923 0 01-1.923 1.923H12.923A1.923 1.923 0 0111 59.035V12.881a1.923 1.923 0 011.923-1.923z"/><rect x="16" y="4" rx="2.254" width="40" height="64" fill="none" stroke="#00a5ff" stroke-miterlimit="10" stroke-width=".1"/><rect x="16" y="4" rx="2.254" width="40" height="64" transform="rotate(90 36 36)" fill="none" stroke="#00a5ff" stroke-miterlimit="10" stroke-width=".1"/><circle cx="36" cy="36" r="29" fill="none" stroke="#00a5ff" stroke-miterlimit="10" stroke-width=".1"/><path d="M66 49s-.874 2.977-1 4c-.202 1.645-1.343 3-3 3H10c-1.657 0-2.798-1.355-3-3-.126-1.023-1-4-1-4m57.73-12.674c-.357-1.523-.937-3.326-.937-3.326-2.84-6.856-8.297-12.63-15.695-15.694-14.475-5.995-31.02.595-37.474 14.735 0 0-.78 1.865-1.15 4.222C6.464 36.91 5 38.774 5 41a5 5 0 005 5c1.866 0 3.474-1.034 4.333-2.549.86 1.515 2.468 2.549 4.334 2.549 1.865 0 3.475-1.035 4.333-2.55.858 1.515 2.468 2.55 4.333 2.55 1.866 0 3.475-1.034 4.334-2.549C32.527 44.966 34.134 46 36 46s3.474-1.034 4.333-2.549c.86 1.515 2.468 2.549 4.334 2.549 1.865 0 3.475-1.035 4.333-2.55.858 1.515 2.468 2.55 4.333 2.55 1.866 0 3.475-1.034 4.334-2.549C58.527 44.966 60.134 46 62 46a5 5 0 005-5c0-2.15-1.366-3.969-3.27-4.674zM36 32v-6m-13.556 3.557l4.778-4.779m22.335 4.779l-4.779-4.779" stroke-linecap="round" stroke-miterlimit="10" stroke-width="6" stroke="#fff" fill="none" stroke-linejoin="round"/><path fill="#FFF" d="M66.747 49.062s-1.896 3.051-2.025 4.1c-.207 1.685-.376 3.075-2.075 3.075H9.353c-1.699 0-2.868-1.39-3.075-3.075-.13-1.049-1.167-4.1-1.167-4.1l-.119-6.858c2.36-3.433 10.59-5.44 31.008-5.44 20.172 0 31.612.101 30.923 4.236l-.176 8.062z"/><path fill="#fcea2b" d="M63.73 36.326c-.357-1.523-.937-3.326-.937-3.326-2.84-6.856-8.297-12.63-15.695-15.694-14.475-5.995-31.02.595-37.474 14.735 0 0-.78 1.865-1.15 4.222C6.464 36.91 5 38.774 5 41a5 5 0 005 5c1.866 0 3.474-1.034 4.333-2.549.86 1.515 2.468 2.549 4.334 2.549 1.865 0 3.475-1.035 4.333-2.55.858 1.515 2.468 2.55 4.333 2.55 1.866 0 3.475-1.034 4.334-2.549C32.527 44.966 34.134 46 36 46s3.474-1.034 4.333-2.549c.86 1.515 2.468 2.549 4.334 2.549 1.865 0 3.475-1.035 4.333-2.55.858 1.515 2.468 2.55 4.333 2.55 1.866 0 3.475-1.034 4.334-2.549C58.527 44.966 60.134 46 62 46a5 5 0 005-5c0-2.15-1.366-3.969-3.27-4.674z"/><path d="M66 49s-.874 2.977-1 4c-.202 1.645-1.343 3-3 3H10c-1.657 0-2.798-1.355-3-3-.126-1.023-1-4-1-4m57.73-12.674c-.357-1.523-.937-3.326-.937-3.326-2.84-6.856-8.297-12.63-15.695-15.694-14.475-5.995-31.02.595-37.474 14.735 0 0-.78 1.865-1.15 4.222C6.464 36.91 5 38.774 5 41a5 5 0 005 5c1.866 0 3.474-1.034 4.333-2.549.86 1.515 2.468 2.549 4.334 2.549 1.865 0 3.475-1.035 4.333-2.55.858 1.515 2.468 2.55 4.333 2.55 1.866 0 3.475-1.034 4.334-2.549C32.527 44.966 34.134 46 36 46s3.474-1.034 4.333-2.549c.86 1.515 2.468 2.549 4.334 2.549 1.865 0 3.475-1.035 4.333-2.55.858 1.515 2.468 2.55 4.333 2.55 1.866 0 3.475-1.034 4.334-2.549C58.527 44.966 60.134 46 62 46a5 5 0 005-5c0-2.15-1.366-3.969-3.27-4.674zM36 32v-6m-13.556 3.557l4.778-4.779m22.335 4.779l-4.779-4.779" fill="none" stroke="#000" stroke-linecap="round" stroke-linejoin="round" stroke-miterlimit="10" stroke-width="2"/></svg>
